X:54
T:Le Lierre
C:Maxou Heintzen
M:2/4
Q:1/4=150
K:G
B3A G2F2|G2A2 F2GA|B3A G2F2|GFGA B2d2|
B3A G2F2|G2A2 F4|E3F GFE2|F8:|E3F G2E2|FEFG A2Bc|
B3A G2F2|G2A2 F2D2|E3F G2E2|
FEFG A2Bc|B3A G2F2|E8:|
